svg/Meteorology/sea/sea_very_rough.svg

<?xml version="1.0" encoding="UTF-8" standalone="no"?>
<!-- Created with Inkscape (http://www.inkscape.org/) -->
<svg
   xmlns:dc="http://purl.org/dc/elements/1.1/"
   xmlns:cc="http://web.resource.org/cc/"
   xmlns:rdf="http://www.w3.org/1999/02/22-rdf-syntax-ns#"
   xmlns:svg="http://www.w3.org/2000/svg"
   xmlns="http://www.w3.org/2000/svg"
   xmlns:sodipodi="http://sodipodi.sourceforge.net/DTD/sodipodi-0.dtd"
   xmlns:inkscape="http://www.inkscape.org/namespaces/inkscape"
   width="744.09448819"
   height="1052.3622047"
   id="svg2"
   sodipodi:version="0.32"
   inkscape:version="0.44.1"
   sodipodi:docbase="F:\QGIS_N_ARROWS\METEOROLOGY"
   sodipodi:docname="finale.svg">
  <defs
     id="defs4" />
  <sodipodi:namedview
     id="base"
     pagecolor="#ffffff"
     bordercolor="#666666"
     borderopacity="1.0"
     inkscape:pageopacity="0.0"
     inkscape:pageshadow="2"
     inkscape:zoom="0.98994949"
     inkscape:cx="359.28571"
     inkscape:cy="520"
     inkscape:document-units="px"
     inkscape:current-layer="layer1"
     showgrid="true"
     inkscape:window-width="1280"
     inkscape:window-height="744"
     inkscape:window-x="-4"
     inkscape:window-y="-4" />
  <metadata
     id="metadata7">
    <rdf:RDF>
      <cc:Work
         rdf:about="">
        <dc:format>image/svg+xml</dc:format>
        <dc:type
           rdf:resource="http://purl.org/dc/dcmitype/StillImage" />
      </cc:Work>
    </rdf:RDF>
  </metadata>
  <g
     inkscape:label="Livello 1"
     inkscape:groupmode="layer"
     id="layer1">
    <path
       style="fill:none;fill-rule:evenodd;stroke:#0000fb;stroke-width:18.30469513px;stroke-linecap:butt;stroke-linejoin:miter;stroke-opacity:1"
       d="M 358.65235,528.70983 L 396.949,443.01958 L 436.85538,528.70983 L 476.43972,443.01958 L 515.05842,528.70983 L 554.44928,443.01958 L 593.26145,528.70983 L 632.95246,443.01958 L 671.46448,528.70983"
       id="path2861"
       inkscape:export-filename="F:\QGIS_N_ARROWS\METEOROLOGY\finale.png"
       inkscape:export-xdpi="150"
       inkscape:export-ydpi="150" />
  </g>
</svg>

<svg xmlns="http://www.w3.org/2000/svg" viewBox="0 0 744.09 1052.36"><path d="m358.65 528.71l38.3-85.69 39.906 85.69 39.584-85.69 38.619 85.69 39.39-85.69 38.812 85.69 39.691-85.69 38.512 85.69" fill="none" fill-rule="evenodd" stroke="#0000fb" stroke-width="18.305"/></svg>
